X: 31613
T: Pandy Clock, The
R: jig
M: 6/8
K: Gmajor
dGG GFG|EGG DGG|EGG D2 G|FAB ABc|
dG/A/G GFG|EGG DGG|D2 G A^GA|BGF G2:|
dBB gBB|dB/c/d gdB|cAA aAA|DFA cBA|
dBB gBB|dBd g2 B|D2 G A^GA|BGF G3:|
dGd GAG|eGG dGG|eGG dGG|FAB AA/B/c|
dGF G2 ^c|eGe dBc|dcB A^GA|BGG G2:|

